X: 10595
T: Doug MacPhee's Clog
R: hornpipe
M: 4/4
K: Fmajor
|:c>B|A2 F>C A,>CF>A|c2 (3ABc f>c A2|B2 G>E C>EG>A|B>AB>c d>cB<c|
A2 F>C A,>CF>A|c2 (3ABc f>cA>c|B2 G>E C>EG>B|1 A<FG>E F>d:|2 A<FG<E F2||
|:A>B|c2 A>c f>cA>c|d2 B>d g>ec>d|c2 A>c f>cA>c|B>AG<F G2 A>B|
c2 A>c f>cA>c|d2 B>d g>ec>f|e>dc<A B>GE<C|F2 F>E F2:|

